src/assets/images/brands/honda.svg

<svg height="16" viewBox="0 0 129 16" width="129" xmlns="http://www.w3.org/2000/svg"><path d="m.5 15.155828h11.622087v-1.963191l-1.963192-.235582c-.471165-.078528-.94233-.31411-.94233-1.334969v-2.355829h8.952148v2.198774c0 .62822-.078528 1.256442-.863806 1.334968l-2.041718.235584v2.120245h11.622088v-1.963191l-2.04172-.235582c-.392637-.078528-.863804-.392638-.863804-1.177914v-7.617178c0-.785276.314112-1.256441.863804-1.334968l2.04172-.235585v-1.963189h-11.622088v1.963189l2.041718.235585c.628223.078527.863806.62822.863806 1.334968v2.277301h-8.952148v-2.277301c0-.863802.31411-1.256441.94233-1.334968l1.963192-.235585v-1.963189h-11.622087v1.963189l1.96319.235585c.785276 0 .942331.62822.942331 1.413496v7.381595c0 .785276-.235582 1.334969-.942331 1.413497l-1.96319.235582zm26.934969-7.381595c0-4.554601 3.690798-7.774233 11.857672-7.774233 8.166866 0 11.857666 3.219632 11.857666 7.774233 0 4.554602-3.6908 7.85276-11.857666 7.85276-8.166874 0-11.857672-3.141104-11.857672-7.85276m11.857672-4.947238c-3.298161 0-5.182827 1.256441-5.182827 4.947238 0 3.690798 1.884666 5.025766 5.182827 5.025766 3.298156 0 5.182819-1.25644 5.182819-5.025766 0-3.769324-1.884663-4.947238-5.182819-4.947238m12.485889 12.328833h9.266255v-1.963191l-2.041718-.235582c-.549686-.078528-.942329-.549693-.942329-1.177914v-7.381594l7.695701 10.13006c.235588.314111.706749.549694 1.177918.549694h7.30307v-10.915338c0-.549693.157051-1.256441.8638-1.334968l2.120239-.235585v-1.963189h-9.266251v1.963189l2.041718.235585c.706749 0 .863808.706748.863808 1.334968v7.146013l-7.695706-10.051534c-.314113-.392638-.628223-.628221-1.177917-.628221h-10.208588v1.963189l1.963188.235585c.706745 0 .94233.471166.94233 1.413496v7.381595c0 .863803-.235585 1.256441-.94233 1.413497l-1.884662.235582v1.884663m49.236808-1.963191v1.963191h9.187737v-1.963191l-1.570557-.157054c-.628219-.078528-1.020858-.471166-.628219-1.177914l.706749-1.099385h8.873611l.62822.942329c.628235.863804 0 1.256442-.785271 1.33497l-1.570549.157054v1.963191h12.564415v-2.041717l-2.041718-.235584c-.628212-.078528-1.020851-.706747-1.570556-1.492024l-6.517784-9.973007c-.235588-.31411-.62822-.785275-1.256447-.785275h-11.150917v1.963189l2.591415.314112c.471153.078527.8638.628221.471153 1.256441l-4.947235 7.931288c-.078529.157056-.314109.785276-1.020851.863804zm-22.69448-12.564416h14.370559c6.596314 0 9.501847 3.219632 9.42331 6.91043 0 4.24049-2.826996 7.460123-9.42331 7.460123h-14.370559v-1.884663l1.963188-.235584c.549698-.078528.785278-.549692.785278-1.099386v-7.774232c0-.706748-.314102-1.256443-.942329-1.256443l-1.806137-.157056zm8.480987 11.700614h3.690788c3.533745 0 5.025772-.785276 5.025772-4.476075 0-3.690797-1.492027-4.476073-5.025772-4.476073h-3.690788zm29.212265-4.240492h-5.653984l2.748467-4.476073z"/></svg>

<?xml version="1.0" encoding="UTF-8"?>
<!-- Generated by Pixelmator Pro 3.6.14 -->
<svg width="129" height="16" viewBox="0 0 129 16" xmlns="http://www.w3.org/2000/svg">
    <path id="honda" fill="#000000" stroke="none" d="M 0.5 15.155828 L 12.122087 15.155828 L 12.122087 13.192637 L 10.158895 12.957055 C 9.68773 12.878527 9.216565 12.642945 9.216565 11.622086 L 9.216565 9.266257 L 18.168713 9.266257 L 18.168713 11.465031 C 18.168713 12.093251 18.090185 12.721473 17.304907 12.799999 L 15.263189 13.035583 L 15.263189 15.155828 L 26.885277 15.155828 L 26.885277 13.192637 L 24.843557 12.957055 C 24.45092 12.878527 23.979753 12.564417 23.979753 11.779141 L 23.979753 4.161963 C 23.979753 3.376687 24.293865 2.905522 24.843557 2.826995 L 26.885277 2.59141 L 26.885277 0.628221 L 15.263189 0.628221 L 15.263189 2.59141 L 17.304907 2.826995 C 17.93313 2.905522 18.168713 3.455215 18.168713 4.161963 L 18.168713 6.439264 L 9.216565 6.439264 L 9.216565 4.161963 C 9.216565 3.298161 9.530675 2.905522 10.158895 2.826995 L 12.122087 2.59141 L 12.122087 0.628221 L 0.5 0.628221 L 0.5 2.59141 L 2.46319 2.826995 C 3.248466 2.826995 3.405521 3.455215 3.405521 4.240491 L 3.405521 11.622086 C 3.405521 12.407362 3.169939 12.957055 2.46319 13.035583 L 0.5 13.271165 L 0.5 15.155828 M 27.434969 7.774233 C 27.434969 3.219632 31.125767 0 39.292641 0 C 47.459507 0 51.150307 3.219632 51.150307 7.774233 C 51.150307 12.328835 47.459507 15.626993 39.292641 15.626993 C 31.125767 15.626993 27.434969 12.485889 27.434969 7.774233 M 39.292641 2.826995 C 35.99448 2.826995 34.109814 4.083436 34.109814 7.774233 C 34.109814 11.465031 35.99448 12.799999 39.292641 12.799999 C 42.590797 12.799999 44.47546 11.543559 44.47546 7.774233 C 44.47546 4.004909 42.590797 2.826995 39.292641 2.826995 M 51.77853 15.155828 L 61.044785 15.155828 L 61.044785 13.192637 L 59.003067 12.957055 C 58.453381 12.878527 58.060738 12.407362 58.060738 11.779141 L 58.060738 4.397547 L 65.756439 14.527607 C 65.992027 14.841718 66.463188 15.077301 66.934357 15.077301 L 74.237427 15.077301 L 74.237427 4.161963 C 74.237427 3.61227 74.394478 2.905522 75.101227 2.826995 L 77.221466 2.59141 L 77.221466 0.628221 L 67.955215 0.628221 L 67.955215 2.59141 L 69.996933 2.826995 C 70.703682 2.826995 70.860741 3.533743 70.860741 4.161963 L 70.860741 11.307976 L 63.165035 1.256442 C 62.850922 0.863804 62.536812 0.628221 61.987118 0.628221 L 51.77853 0.628221 L 51.77853 2.59141 L 53.741718 2.826995 C 54.448463 2.826995 54.684048 3.298161 54.684048 4.240491 L 54.684048 11.622086 C 54.684048 12.485889 54.448463 12.878527 53.741718 13.035583 L 51.857056 13.271165 L 51.857056 15.155828 M 101.093864 13.192637 L 101.093864 15.155828 L 110.281601 15.155828 L 110.281601 13.192637 L 108.711044 13.035583 C 108.082825 12.957055 107.690186 12.564417 108.082825 11.857669 L 108.789574 10.758284 L 117.663185 10.758284 L 118.291405 11.700613 C 118.91964 12.564417 118.291405 12.957055 117.506134 13.035583 L 115.935585 13.192637 L 115.935585 15.155828 L 128.5 15.155828 L 128.5 13.114111 L 126.458282 12.878527 C 125.83007 12.799999 125.437431 12.17178 124.887726 11.386503 L 118.369942 1.413496 C 118.134354 1.099386 117.741722 0.628221 117.113495 0.628221 L 105.962578 0.628221 L 105.962578 2.59141 L 108.553993 2.905522 C 109.025146 2.984049 109.417793 3.533743 109.025146 4.161963 L 104.077911 12.093251 C 103.999382 12.250307 103.763802 12.878527 103.05706 12.957055 L 101.093864 13.192637 Z M 78.399384 0.628221 L 92.769943 0.628221 C 99.366257 0.628221 102.27179 3.847853 102.193253 7.538651 C 102.193253 11.779141 99.366257 14.998774 92.769943 14.998774 L 78.399384 14.998774 L 78.399384 13.114111 L 80.362572 12.878527 C 80.91227 12.799999 81.14785 12.328835 81.14785 11.779141 L 81.14785 4.004909 C 81.14785 3.298161 80.833748 2.748466 80.205521 2.748466 L 78.399384 2.59141 L 78.399384 0.628221 Z M 86.880371 12.328835 L 90.571159 12.328835 C 94.104904 12.328835 95.596931 11.543559 95.596931 7.85276 C 95.596931 4.161963 94.104904 3.376687 90.571159 3.376687 L 86.880371 3.376687 L 86.880371 12.328835 Z M 116.092636 8.088343 L 110.438652 8.088343 L 113.187119 3.61227 L 116.092636 8.088343 Z"/>
</svg>
